X:1
T:Farewell disdainful - Morley
T:James Gibb editions
T:#
%%score [ 1 2 3 ]
L:1/8
M:4/4
K:C
V:1 treble nm="Soprano" snm="S"
V:2 treble nm="Alto" snm="A"
V:3 treble-8 nm="Tenor" snm="T"
V:1
 A8 | A4"^Farewell disdainful" G4 | F8 | E4 z2 A2 | G2 A2 _B4 | %5
w: Fare-|well dis-|dain-|ful, since|love, no love,|
 A4"^Thomas Morley\n(1557-1603)" A2 G2- |[M:4/4] G2 A2 F2 G2- | G2 F2 E4 | ^F4 d4 | ^c4 c4 | %10
w: love no love,|* no, no love|* a- vails|me, O|sharp and|
 d4 A4 | _B8 | A8 | z4 d4 | G4 G4 | c8 | _B4 (A4- | A4 G4) | A8 | z4 E4 | A4 A4 | =c6 c2 | B8 | %23
w: bit- ter|an-|guish,|what|dis- cord|grief|as- sails||me?|Needs|must I|part, a-|las,|
 A4 c4- | c2 B2 A4- | A4 ^G4 | A6 c2 | B4 A4 | G8 | ^F4 A4 | A2 A2 F2 G2 | A6 c2 | B2 A2 G2 AG | %33
w: yet part-|* ing makes|* me|lan- guish,|makes me|lan-|guish. But|yet it pleas- eth|thee. There-|fore un- kind, now a-|
 F2 GF E2 A2 | G2 AG F2 GF | E2 D2 E4 | ^F8 | A8 | A4 A4 | _B8 | A4 d4 | ^c4 c4 | d4 A4 | _B8 | %44
w: dieu, now a- dieu, there-|fore now a- dieu, there is|no re- me-|dy.|O|come a-|gain,|O, O|come a-|gain, re-|turn|
 A8 | c4 G2 A2 | _B4 F2 G2 | A4 E2 F2 | G4 D2 E2 | F2 G2 A2 B2 | ^c2 A2 (d4- | d2 ^cB c4) | %52
w: thee:|No, no, no,|no, no, no,|no, no, no,|no, no, false|Love, thy flames no|more shall burn||
 d4 d4 |: c8 | c8 | A4 c2 c2 | _B2 A3 A G2 | d2 c3 G _B2 | A2 A2 G2 F2 | E4 D2 d2 | c2 _B2 A4 | %61
w: me. No,|con-|tent|thee; when I|am gone per- haps,|when I am gone,|then wilt thou re-|pent thee, thou|wilt re- pent|
 G4 z2 _e2 | d2 c3 G _B2 |1 A2 G4 F2 | E4 D4 | d8 :|2 A2 A4 G2- || G2 F2 E4 || ^F2 G2 A4 | %69
w: thee, Ay|thou wilt re- pent,|re- pent, re-|pent thee.|No|thee, re- pent,|* re- pent|thee, ay re-|
[Q:1/4=114] _B8 |[Q:1/4=104] A8- |[Q:1/4=100] A8 |] %72
w: pent|thee.||
V:2
 F8 | F4 E4 | D8 | ^C4 z2 F2 | E2 F4 E2 | F4 F2 E2- |[M:4/4] E2 F2 D2 E2- | E2 D4 ^C2 | D4 F4 | %9
w: Fare-|well dis-|dain-|ful, since|no love, no|love, no love,|* no, no love|* a- vails|me, O|
 E4 E4 | D4 D4 | G8 | ^F4 F4 | G6 F2 | E2 F2 (G4- | G2 ^FE F4) | G2 G2 F4- | F2 E2 D4- | %18
w: sharp and|bit- ter|an-|guish, what|dis- cord|grief as- sails||me, what dis\-|* cord grief|
 D4 (^C2 B,2) | ^C4 C4 | z4 A,4 | E4 E4 | G6 G2 | F4 E4- | E4 E4 | D6 E2 | F4 (E4- | E2 D2) (D4- | %28
w: * as\- *|sails me?|Needs|must I|part, a-|las, O|* yet|part- ing|makes me|* * lan\-|
 D4 ^C4) | D4 =F4 | E2 F2 D2 D2 | ^C6 A2 | G2 F2 E4 | D2 ED ^C2 F2 | E2 FE D2 ED | ^C2 D4 C2 | D8 | %37
w: |guish. But|yet it pleas- eth|thee. There-|fore un- kind|heart, now a- dieu, there-|fore now a- dieu, there is|no re- me-|dy.|
 z4 ^F4 | ^F4 F4 | G8 | =F4 F4 | E8 | D8 | z4 G4 | =F4 F4 | E8 | G4 D2 E2 | F4 C2 D2 | E4 B,2 C2 | %49
w: O|come a-|gain,|O, re-|turn|thee,|O|come a-|gain:|No, no, no,|no, no, no,|no, no, no,|
 D2 E2 F2 G2 | A4 G2 F2 | E2 D2 E2 E2 | D2 E2 F2 G2 |: A6 (GF) | (E2 F4 E2) | F2 A2 A2 G2 | %56
w: no, no more, false|Love, no, thy|flames shall burn me.|No, no, no, be|still con\- *|tent * *|thee; when I am|
 F3 F E2 D2- | DE F2 E2 D2 | F2 F2 E2 D2- | D2 ^C2 D2 _B2 | A2 G4 ^F2 | G2 _B2 A2 (G2- | %62
w: gone per- haps, then|* per- haps, then per-|haps thou wilt re\-|* pent thee, thou|wilt re- pent|thee, Ay thou wilt|
 GF) F2 (E2 D2) |1 F2 (E3 D) (D2- | D2 ^C2) D4 | D2 E2 F2 G2 :|2 F2 F4 E2- || ED (D4 ^C2) || %68
w: * * re- pent *|thee, re\- * pent|* * thee.|No, no, no, be|thee, re- pent,|* re- pent *|
 D2 _B,2 C2 D2- | D2 EF (G4- | G4 ^F2 E2) | ^F8 |] %72
w: thee, ay re- pent,|* ay re- pent||thee.|
V:3
 D8 | F4 C4 | D8 | A4 z2 F2 | c2 A2 G4 | F4 F2 c2- |[M:4/4][K:treble-8] c2 A2 _B2 G2 | A8 | D8 | %9
w: Fare-|well dis-|dain-|ful, since|love, no love,|no no love,|* no love a-|vails|me,|
 z4 A4 | ^F4 F4 | G2 G2 G4 | D4 d4 | B4 B4 | c6 _B2 | A8 | G4 A4 | _B8 | A8- | A8 | A8 | z8 | %22
w: O|sharp and|bit- ter an-|guish, what|dis- cord|grief as-|sails|me, as-|sails|me?||||
 z4 E4 | A4 A4 | c4 c4 | B8 | A8 | G4 F4 | E8 | D4 d4 | c2 A2 _B4 | A6 A2 | Bc d4 ^c2 | %33
w: I|must de-|part, yet|part-|ing|makes me|lan-|guish. But|it doth please|thee. There-|fore a- dieu un-|
 d2 G2 A2 F2 | c2 A2 _B2 G2 | A2 _B2 A2 A2 | D8 | z4 d4 | d4 d4 | G3 A _B2 c2 | d8 | z4 A4 | %42
w: kind, a- dieu, there-|fore a- dieu, there|is no re- me-|dy.|O|come a-|gain a- gain, a-|gain,|O|
 ^F4 F4 | G8 | D4 d4 | A2 B2 c4 | G2 A2 _B4 | F2 G2 A4 | E2 F2 G4 | D4 d4 | A8- | A8 | %52
w: come re-|turn|thee: No,|no, no, no,|no, false Love,|no, thy flames,|no, no more|shall burn|me.||
 _B2 c2 d2 e2 |: f2 F2 A2 _B2 | c2 A2 c4 | F2 f2 f2 e2 | d3 d c2 _B2- | B!courtesy!_B A2 G4 | %58
w: No, no, no, be|still, no, no, be|still con- tent|thee; when I am|gone per- haps, then|* per- haps, then|
 F4 G4 | A4 _B4 | c4 d4 | G4 c4 | _B2 A2 G4 |1 F2 G2 A4- | A4 D4 | _B2 c2 d2 e2 :|2 F4 G4 || A8 || %68
w: thou wilt|re- pent,|re- pent|thee, thou|wilt re- pent|thee, re- pent|* thee.|No, no, no, be|thee, re-|pent|
 D2 G4 ^F2 | G4 GA_Bc | d8 | D8 |] %72
w: thee, ay re-|pent, ay thou wilt re-|pent|thee.|

